img/mission/63.svg

<svg xmlns="http://www.w3.org/2000/svg" xmlns:xlink="http://www.w3.org/1999/xlink" width="1080" zoomAndPan="magnify" viewBox="0 0 810 809.999993" height="1080" preserveAspectRatio="xMidYMid meet" version="1.0"><defs><clipPath id="id1"><path d="M 220.585938 212.890625 L 604.585938 212.890625 L 604.585938 596.890625 L 220.585938 596.890625 Z M 220.585938 212.890625 " clip-rule="nonzero"/></clipPath><clipPath id="id2"><path d="M 273.109375 349 L 450 349 L 450 513 L 273.109375 513 Z M 273.109375 349 " clip-rule="nonzero"/></clipPath><clipPath id="id3"><path d="M 504 465 L 552.109375 465 L 552.109375 513 L 504 513 Z M 504 465 " clip-rule="nonzero"/></clipPath></defs><g clip-path="url(#id1)"><path fill="#ad98d4" d="M 412.585938 212.890625 C 306.546875 212.890625 220.585938 298.851562 220.585938 404.890625 C 220.585938 510.929688 306.546875 596.890625 412.585938 596.890625 C 518.625 596.890625 604.585938 510.929688 604.585938 404.890625 C 604.585938 298.851562 518.625 212.890625 412.585938 212.890625 " fill-opacity="1" fill-rule="nonzero"/></g><path fill="#ffffff" d="M 449.746094 370.6875 C 454.359375 373.609375 457.863281 378.296875 459.144531 384.054688 C 460.964844 392.1875 457.878906 400.273438 451.851562 405.21875 L 451.875 405.621094 C 451.964844 407.0625 452.863281 408.328125 454.199219 408.878906 C 455.53125 409.433594 457.0625 409.175781 458.144531 408.222656 L 494.40625 376.101562 C 495.488281 375.140625 495.929688 373.648438 495.542969 372.257812 C 495.160156 370.867188 494.011719 369.816406 492.59375 369.554688 L 453.933594 362.382812 C 452.792969 362.167969 451.617188 362.496094 450.746094 363.265625 C 449.878906 364.039062 449.410156 365.167969 449.480469 366.328125 Z M 449.746094 370.6875 " fill-opacity="1" fill-rule="nonzero"/><path fill="#ffffff" d="M 422.664062 321.972656 C 422.664062 336.316406 411.050781 347.945312 396.726562 347.945312 C 382.402344 347.945312 370.789062 336.316406 370.789062 321.972656 C 370.789062 307.628906 382.402344 296.003906 396.726562 296.003906 C 411.050781 296.003906 422.664062 307.628906 422.664062 321.972656 Z M 422.664062 321.972656 " fill-opacity="1" fill-rule="nonzero"/><g clip-path="url(#id2)"><path fill="#ffffff" d="M 396.839844 408.6875 C 397.613281 408.6875 398.394531 408.601562 399.167969 408.429688 L 440.691406 399.121094 C 446.429688 397.832031 450.042969 392.132812 448.757812 386.382812 C 447.46875 380.636719 441.777344 377.019531 436.035156 378.308594 L 400.085938 386.371094 L 375.148438 362.449219 L 399.03125 375.675781 L 402.410156 374.921875 C 402.121094 368.800781 398.292969 363.136719 392.210938 360.808594 L 365.757812 350.695312 C 357.5625 347.566406 348.386719 351.675781 345.257812 359.878906 L 317.984375 431.402344 C 317.332031 432.699219 316.628906 438.117188 316.773438 439.0625 L 324.179688 487.367188 L 285.890625 487.367188 C 278.832031 487.367188 273.109375 493.097656 273.109375 500.164062 C 273.109375 507.230469 278.832031 512.957031 285.890625 512.957031 L 339.074219 512.957031 C 342.800781 512.957031 346.34375 511.328125 348.769531 508.496094 C 351.199219 505.664062 352.269531 501.910156 351.707031 498.222656 L 344.394531 450.550781 L 377.160156 458.8125 L 368.082031 497.210938 C 366.453125 504.089844 370.703125 510.984375 377.570312 512.609375 C 384.4375 514.238281 391.324219 509.988281 392.953125 503.105469 L 404.933594 452.433594 C 406.546875 445.625 402.398438 438.785156 395.621094 437.078125 L 381.484375 433.511719 L 387.261719 418.363281 C 385.175781 417.195312 383.378906 415.507812 382.109375 413.425781 L 360.414062 377.847656 L 389.476562 405.726562 C 391.476562 407.644531 394.125 408.6875 396.839844 408.6875 Z M 396.839844 408.6875 " fill-opacity="1" fill-rule="nonzero"/></g><path fill="#ffffff" d="M 486.703125 465.558594 L 445.761719 465.558594 C 443.996094 465.558594 442.5625 466.992188 442.5625 468.765625 L 442.5625 509.757812 C 442.5625 511.527344 443.996094 512.957031 445.761719 512.957031 L 486.703125 512.957031 C 488.46875 512.957031 489.902344 511.527344 489.902344 509.757812 L 489.902344 468.765625 C 489.902344 466.992188 488.46875 465.558594 486.703125 465.558594 Z M 486.703125 465.558594 " fill-opacity="1" fill-rule="nonzero"/><g clip-path="url(#id3)"><path fill="#ffffff" d="M 548.878906 465.558594 L 507.9375 465.558594 C 506.167969 465.558594 504.734375 466.992188 504.734375 468.765625 L 504.734375 509.757812 C 504.734375 511.527344 506.167969 512.957031 507.9375 512.957031 L 548.878906 512.957031 C 550.644531 512.957031 552.078125 511.527344 552.078125 509.757812 L 552.078125 468.765625 C 552.078125 466.992188 550.644531 465.558594 548.878906 465.558594 Z M 548.878906 465.558594 " fill-opacity="1" fill-rule="nonzero"/></g><path fill="#ffffff" d="M 475.320312 410.542969 L 475.320312 451.535156 C 475.320312 453.304688 476.753906 454.738281 478.519531 454.738281 L 519.460938 454.738281 C 521.226562 454.738281 522.660156 453.304688 522.660156 451.535156 L 522.660156 410.542969 C 522.660156 408.773438 521.226562 407.339844 519.460938 407.339844 L 478.519531 407.339844 C 476.753906 407.339844 475.320312 408.773438 475.320312 410.542969 Z M 475.320312 410.542969 " fill-opacity="1" fill-rule="nonzero"/></svg>

<?xml version="1.0" encoding="UTF-8" standalone="no"?>
<svg
   width="512"
   zoomAndPan="magnify"
   viewBox="0 0 384 384"
   height="512"
   preserveAspectRatio="xMidYMid meet"
   version="1.0"
   id="svg1203"
   sodipodi:docname="63.svg"
   inkscape:version="1.1 (c68e22c387, 2021-05-23)"
   xmlns:inkscape="http://www.inkscape.org/namespaces/inkscape"
   xmlns:sodipodi="http://sodipodi.sourceforge.net/DTD/sodipodi-0.dtd"
   xmlns="http://www.w3.org/2000/svg"
   xmlns:svg="http://www.w3.org/2000/svg">
  <sodipodi:namedview
     id="namedview1205"
     pagecolor="#ffffff"
     bordercolor="#666666"
     borderopacity="1.0"
     inkscape:pageshadow="2"
     inkscape:pageopacity="0.0"
     inkscape:pagecheckerboard="0"
     showgrid="false"
     inkscape:zoom="0.73518519"
     inkscape:cx="245.51637"
     inkscape:cy="255.71788"
     inkscape:window-width="1920"
     inkscape:window-height="1002"
     inkscape:window-x="-8"
     inkscape:window-y="-8"
     inkscape:window-maximized="1"
     inkscape:current-layer="svg1203" />
  <defs
     id="defs1181">
    <clipPath
       id="id1">
      <path
         d="m 220.58594,212.89062 h 384 v 384 h -384 z m 0,0"
         clip-rule="nonzero"
         id="path1172" />
    </clipPath>
    <clipPath
       id="id2">
      <path
         d="M 273.10937,349 H 450 V 513 H 273.10937 Z m 0,0"
         clip-rule="nonzero"
         id="path1175" />
    </clipPath>
    <clipPath
       id="id3">
      <path
         d="m 504,465 h 48.10937 v 48 H 504 Z m 0,0"
         clip-rule="nonzero"
         id="path1178" />
    </clipPath>
  </defs>
  <g
     clip-path="url(#id1)"
     id="g1185"
     transform="translate(-220.58594,-212.89063)">
    <path
       fill="#ad98d4"
       d="m 412.58594,212.89062 c -106.03907,0 -192,85.96094 -192,192 0,106.03907 85.96093,192 192,192 106.03906,0 192,-85.96093 192,-192 0,-106.03906 -85.96094,-192 -192,-192"
       fill-opacity="1"
       fill-rule="nonzero"
       id="path1183" />
  </g>
  <path
     fill="#ffffff"
     d="m 229.16015,157.79687 c 4.61328,2.92187 8.11719,7.60937 9.39844,13.36719 1.82031,8.13281 -1.26562,16.21875 -7.29297,21.16406 l 0.0234,0.40234 c 0.0898,1.44141 0.98828,2.70703 2.32422,3.25782 1.33203,0.55468 2.86328,0.29687 3.94531,-0.65625 l 36.26172,-32.1211 c 1.08203,-0.96094 1.52344,-2.45312 1.13672,-3.84375 -0.38281,-1.39062 -1.53125,-2.4414 -2.94922,-2.70312 l -38.66016,-7.17188 c -1.14062,-0.21484 -2.3164,0.11328 -3.1875,0.88281 -0.86718,0.77344 -1.33593,1.90235 -1.26562,3.0625 z m 0,0"
     fill-opacity="1"
     fill-rule="nonzero"
     id="path1187" />
  <path
     fill="#ffffff"
     d="m 202.07812,109.08203 c 0,14.34375 -11.61328,25.97265 -25.9375,25.97265 -14.32422,0 -25.9375,-11.6289 -25.9375,-25.97265 0,-14.343745 11.61328,-25.968745 25.9375,-25.968745 14.32422,0 25.9375,11.625 25.9375,25.968745 z m 0,0"
     fill-opacity="1"
     fill-rule="nonzero"
     id="path1189" />
  <g
     clip-path="url(#id2)"
     id="g1193"
     transform="translate(-220.58594,-212.89063)">
    <path
       fill="#ffffff"
       d="m 396.83984,408.6875 c 0.77344,0 1.55469,-0.0859 2.32813,-0.25781 l 41.52344,-9.3086 c 5.73828,-1.28906 9.35156,-6.98828 8.0664,-12.73828 -1.28906,-5.74609 -6.98047,-9.36328 -12.72265,-8.07422 l -35.94922,8.0625 -24.9375,-23.92187 23.88281,13.22656 3.37891,-0.75391 c -0.28907,-6.12109 -4.11719,-11.78515 -10.19922,-14.11328 l -26.45313,-10.11328 c -8.19531,-3.1289 -17.37109,0.98047 -20.5,9.1836 l -27.27344,71.52343 c -0.65234,1.29688 -1.35546,6.71485 -1.21093,7.66016 l 7.40625,48.30469 h -38.28907 c -7.05859,0 -12.78125,5.73047 -12.78125,12.79687 0,7.06641 5.72266,12.79297 12.78125,12.79297 h 53.1836 c 3.72656,0 7.26953,-1.62891 9.69531,-4.46094 2.42969,-2.83203 3.5,-6.58593 2.9375,-10.27343 l -7.3125,-47.67188 32.76563,8.26172 -9.07813,38.39844 c -1.62891,6.8789 2.62109,13.77343 9.48828,15.39843 6.86719,1.62891 13.75391,-2.62109 15.38281,-9.5039 l 11.98047,-50.67188 c 1.61328,-6.80859 -2.53515,-13.64843 -9.3125,-15.35547 l -14.13672,-3.5664 5.77735,-15.14844 c -2.08594,-1.16797 -3.88281,-2.85547 -5.15235,-4.9375 l -21.69531,-35.57812 29.0625,27.8789 c 2,1.91797 4.64844,2.96094 7.36328,2.96094 z m 0,0"
       fill-opacity="1"
       fill-rule="nonzero"
       id="path1191" />
  </g>
  <path
     fill="#ffffff"
     d="m 266.11718,252.66796 h -40.9414 c -1.76563,0 -3.19922,1.4336 -3.19922,3.20703 v 40.99219 c 0,1.76953 1.43359,3.19922 3.19922,3.19922 h 40.9414 c 1.76563,0 3.19922,-1.42969 3.19922,-3.19922 v -40.99219 c 0,-1.77343 -1.43359,-3.20703 -3.19922,-3.20703 z m 0,0"
     fill-opacity="1"
     fill-rule="nonzero"
     id="path1195" />
  <g
     clip-path="url(#id3)"
     id="g1199"
     transform="translate(-220.58594,-212.89063)">
    <path
       fill="#ffffff"
       d="M 548.87891,465.55859 H 507.9375 c -1.76953,0 -3.20313,1.4336 -3.20313,3.20703 v 40.99219 c 0,1.76953 1.4336,3.19922 3.20313,3.19922 h 40.94141 c 1.76562,0 3.19921,-1.42969 3.19921,-3.19922 v -40.99219 c 0,-1.77343 -1.43359,-3.20703 -3.19921,-3.20703 z m 0,0"
       fill-opacity="1"
       fill-rule="nonzero"
       id="path1197" />
  </g>
  <path
     fill="#ffffff"
     d="m 254.73437,197.65234 v 40.99219 c 0,1.76953 1.4336,3.20312 3.19922,3.20312 H 298.875 c 1.76562,0 3.19922,-1.43358 3.19922,-3.20312 v -40.99219 c 0,-1.76952 -1.4336,-3.20313 -3.19922,-3.20313 h -40.94141 c -1.76562,0 -3.19922,1.43361 -3.19922,3.20313 z m 0,0"
     fill-opacity="1"
     fill-rule="nonzero"
     id="path1201" />
</svg>
